newicons/emoji_bucket.svg

<?xml version="1.0" encoding="UTF-8" standalone="no"?>
<svg
   version="1.2"
   viewBox="0 0 48 48"
   id="svg7"
   xmlns="http://www.w3.org/2000/svg"
   xmlns:svg="http://www.w3.org/2000/svg">
  <defs
     id="defs1" />
  <path
     d="M 34.159872,24.314974 31.838925,40.684691 C 31.717271,41.715952 30.845313,42.494709 29.806289,42.5 H 17.786024 C 16.739238,42.4946 15.863435,41.704498 15.751211,40.66439 L 14.143306,24.314308"
     fill="none"
     stroke="#ffffff"
     stroke-linecap="round"
     stroke-linejoin="round"
     stroke-width="1"
     id="path1"
     style="stroke-width:1;stroke-dasharray:none" />
  <path
     d="m 34.859588,24.314998 c 0.458757,-0.0027 0.828361,-0.376692 0.825532,-0.835159 0,-2.9e-4 0,-5.08e-4 0,-7.25e-4 v -0.574607 c 0.01124,-1.7729 -1.417768,-3.219204 -3.191718,-3.230441 0,0 -7.3e-5,0 -1.46e-4,0 H 15.445809 c -1.774024,0.01117 -3.203034,1.457468 -3.191864,3.230296 0,0 0,7.2e-5 0,1.45e-4 v 0.574607 c -0.0028,0.458467 0.366775,0.832331 0.825533,0.835158 v 0 l 21.78011,7.26e-4"
     fill="none"
     stroke="#ffffff"
     stroke-linecap="round"
     stroke-linejoin="round"
     stroke-width="1.08779"
     id="path2"
     style="stroke-width:1;stroke-dasharray:none" />
  <path
     d="M 27.416744,7.4233298 C 34.03616,9.2138466 38.600886,15.258454 38.508467,22.111106"
     fill="none"
     stroke="#ffffff"
     stroke-linecap="round"
     stroke-linejoin="round"
     stroke-width="1.08779"
     id="path3"
     style="stroke-width:1;stroke-dasharray:none" />
  <path
     d="M 20.50346,7.4450787 C 13.923653,9.2637967 9.3994783,15.289193 9.4915343,22.111106"
     fill="none"
     stroke="#ffffff"
     stroke-linecap="round"
     stroke-linejoin="round"
     stroke-width="1.08779"
     id="path4"
     style="stroke-width:1;stroke-dasharray:none" />
  <path
     d="M 9.4971203,22.127997 H 12.343488"
     fill="none"
     stroke="#ffffff"
     stroke-linecap="round"
     stroke-linejoin="round"
     stroke-width="1"
     id="path5"
     style="stroke-width:1;stroke-dasharray:none" />
  <path
     d="m 35.607954,22.18121 h 2.901747"
     fill="none"
     stroke="#ffffff"
     stroke-linecap="round"
     stroke-linejoin="round"
     stroke-width="1"
     id="path6"
     style="stroke-width:1;stroke-dasharray:none" />
  <path
     d="m 20.502009,5.4999997 h 6.929243 V 9.2371905 H 20.502009 V 5.4999997"
     fill="none"
     stroke="#ffffff"
     stroke-linecap="round"
     stroke-linejoin="round"
     stroke-width="1.08779"
     id="path7"
     style="stroke-width:1;stroke-dasharray:none" />
</svg>

<?xml version="1.0" encoding="UTF-8"?><svg id="b" xmlns="http://www.w3.org/2000/svg" viewBox="0 0 48 48"><defs><style>.j{fill:none;stroke:#fff;stroke-linecap:round;stroke-linejoin:round;}</style></defs><path id="c" class="j" d="M34.1599,24.315l-2.3209,16.3697c-.1217,1.0313-.9936,1.81-2.0326,1.8153h-12.0203c-1.0468-.0054-1.9226-.7955-2.0348-1.8356l-1.6079-16.3501"/><path id="d" class="j" d="M34.8596,24.315c.4588-.0027.8284-.3767.8255-.8352v-.5753c.0112-1.7729-1.4178-3.2192-3.1917-3.2304H15.4458c-1.774.0112-3.203,1.4575-3.1919,3.2303h0v.5748c-.0028.4585.3668.8323.8255.8352h0l21.7801.0007"/><path id="e" class="j" d="M27.4167,7.4233c6.6194,1.7905,11.1841,7.8351,11.0917,14.6878"/><path id="f" class="j" d="M20.5035,7.4451c-6.5798,1.8187-11.104,7.8441-11.0119,14.666"/><path id="g" class="j" d="M9.4971,22.128h2.8464"/><path id="h" class="j" d="M35.608,22.1812h2.9017"/><path id="i" class="j" d="M20.502,5.5h6.9292v3.7372h-6.9292v-3.7372"/></svg>
